assets/imgs/bar_puzzle.svg

<svg width="30" height="30" viewBox="0 0 30 30" fill="none" xmlns="http://www.w3.org/2000/svg">
<g clip-path="url(#clip0_235_473)">
<path d="M7.1117 19.4467L5.15657 17.4916L2.33248 14.6675L6.01232 10.9877C7.09463 9.90537 7.74557 10.1234 8.18004 10.5579C8.61451 10.9923 7.74945 12.2919 9.92027 13.5968C12.0911 14.9018 14.4714 12.0871 13.3836 10.1335C12.2959 8.17989 11.6465 8.82927 10.5611 8.17678C9.69279 7.65479 10.0529 6.94707 10.3415 6.65845L14.4543 2.54569L19.0163 7.10767C19.4508 7.54214 20.4491 8.02099 20.9668 6.46061C21.6138 4.51013 22.9141 4.07876 23.3478 4.07954C23.7815 4.08031 25.0826 4.08264 25.7344 4.73435C26.3861 5.38606 26.6041 6.037 26.3892 7.12086C26.1743 8.20471 25.3092 9.50426 24.0081 9.50193C22.707 9.4996 22.4921 10.5835 22.7093 10.8007L23.5783 11.6696L27.923 16.0144L23.5938 20.3436C23.0882 20.5596 22.0765 20.7312 22.0747 19.6904C22.0728 18.6495 21.4931 17.81 21.2034 17.5203C20.6241 16.941 19.0759 16.172 17.5174 17.7306C15.5692 19.6787 17.0899 21.1994 17.3071 21.4166C17.5243 21.6338 17.7416 21.8511 19.4772 22.2879C20.8656 22.6373 20.2026 23.7348 19.6975 24.2399L15.8012 28.1362L12.3254 24.6604C11.6007 23.6472 10.0221 22.0108 9.50441 23.5711L9.5044 23.5712C8.85735 25.5216 8.64167 26.1718 7.34135 26.6031C6.3011 26.9482 5.02778 26.3099 4.52115 25.9476C4.08667 25.5131 3.34729 24.3408 3.86556 23.1273C4.51339 21.6106 5.59725 21.3957 6.89757 20.9643C7.93782 20.6192 7.47376 19.8088 7.1117 19.4467Z" fill="white" stroke="#4B4B4B" stroke-width="2" stroke-linejoin="round"/>
</g>
<defs>
<clipPath id="clip0_235_473">
<rect width="30" height="30" fill="white"/>
</clipPath>
</defs>
</svg>

<svg width="30" height="30" fill="none" xmlns="http://www.w3.org/2000/svg"><g clip-path="url(#a)"><path d="m7.112 19.447-1.955-1.955-2.825-2.825 3.68-3.68c1.083-1.082 1.734-.864 2.168-.43.435.435-.43 1.735 1.74 3.04 2.171 1.305 4.551-1.51 3.464-3.463-1.088-1.954-1.738-1.305-2.823-1.957-.868-.522-.508-1.23-.22-1.519l4.113-4.112 4.562 4.562c.435.434 1.433.913 1.95-.647.648-1.95 1.948-2.382 2.382-2.381.434 0 1.735.003 2.386.654.652.652.87 1.303.655 2.387-.215 1.084-1.08 2.383-2.38 2.38-1.302-.001-1.517 1.083-1.3 1.3l.87.869 4.344 4.344-4.33 4.33c-.505.216-1.517.387-1.518-.654-.002-1.04-.582-1.88-.872-2.17-.579-.579-2.127-1.348-3.686.21-1.948 1.949-.427 3.47-.21 3.687.217.217.435.434 2.17.87 1.389.35.726 1.448.22 1.953l-3.896 3.896-3.476-3.476c-.724-1.013-2.303-2.65-2.82-1.089-.648 1.95-.863 2.6-2.164 3.032-1.04.345-2.313-.293-2.82-.655-.434-.435-1.174-1.607-.655-2.82.647-1.517 1.731-1.732 3.032-2.164 1.04-.345.576-1.155.214-1.517z" fill="#fff" stroke="#4B4B4B" stroke-width="2" stroke-linejoin="round"/></g><defs><clipPath id="a"><path fill="#fff" d="M0 0h30v30H0z"/></clipPath></defs></svg>
